src/images/discover.svg

<svg width="54" height="35" viewBox="0 0 54 35" fill="none" 
    xmlns="http://www.w3.org/2000/svg">
    <rect width="54" height="35" rx="3" fill="#21125E"/>
    <path d="M31.5803 17.4014C31.584 16.5417 31.2616 15.6807 30.6129 15.0319C29.9627 14.3817 29.0996 14.0597 28.2381 14.0648C28.234 14.0648 28.23 14.0646 28.2257 14.0646C26.355 14.0646 24.8711 15.5481 24.8711 17.4194C24.8711 19.2722 26.3733 20.774 28.2257 20.774C30.097 20.774 31.5807 19.2901 31.5807 17.4194C31.5807 17.4132 31.5803 17.4074 31.5803 17.4014Z" fill="#F26E21"/>
    <path d="M24.2473 18.8385C23.7459 19.3405 23.2832 19.5366 22.7847 19.5472C21.5703 19.5363 20.6775 18.637 20.6775 17.3548C20.6775 16.7094 20.9219 16.1804 21.309 15.7285C21.672 15.3839 22.1397 15.1612 22.6775 15.1612C23.2581 15.1612 23.7099 15.3547 24.2257 15.8708V14.387C23.71 14.1291 23.258 14 22.6775 14C21.8574 14.0586 21.0842 14.39 20.491 14.9103C20.3201 15.0641 20.1563 15.2339 20.0174 15.4282C19.5841 15.9898 19.3223 16.6774 19.3223 17.4196C19.3223 19.2903 20.8066 20.7096 22.6774 20.7096C22.6865 20.7096 22.6956 20.7088 22.7044 20.7087C22.717 20.7088 22.7294 20.7096 22.7419 20.7096C23.2579 20.7096 23.7099 20.5808 24.2904 20.3227L24.2473 18.8385C24.2256 18.8603 24.2689 18.8806 24.2473 18.9012V18.8385Z" fill="white"/>
    <path d="M35.8159 14.924L34.3549 18.5161L32.6774 14.2578H31.3228L33.9677 20.7739H34.6774L37.4516 14.2578H36.097L35.8159 14.924Z" fill="white"/>
    <path d="M37.9678 17.0965V20.5806H41.4518H41.516V19.548H40.4193H39.2581V18.387V17.8065H41.4518V16.7094H39.2581V15.3547H41.516V14.2578H37.9678V17.0965Z" fill="white"/>
    <path d="M8.80678 14.2578H7V20.5806H8.80669C9.77427 20.5806 10.4838 20.3223 11.0645 19.8707C11.774 19.2901 12.2258 18.3871 12.2258 17.4195C12.2259 15.548 10.8709 14.2578 8.80678 14.2578ZM10.2905 19.0322C9.90337 19.3547 9.38724 19.548 8.613 19.548H8.22587V15.3546H8.5484C9.32265 15.3546 9.83878 15.4836 10.226 15.8706C10.6775 16.2574 10.9357 16.8384 10.9357 17.4192C11.0002 17.9999 10.7422 18.6448 10.2905 19.0322Z" fill="white"/>
    <path d="M14.0329 14.2572H12.8071V20.5799H14.0329V14.2572Z" fill="white"/>
    <path d="M17.1292 16.7094C16.3551 16.4514 16.1613 16.2577 16.1613 15.9353C16.1613 15.5481 16.5485 15.2256 17.0646 15.2256C17.4517 15.2256 17.7742 15.3547 18.0969 15.7418L18.7422 14.9032C18.2259 14.4514 17.581 14.1936 16.8713 14.1936C15.7742 14.1936 14.871 14.9678 14.871 15.9998C14.871 16.9032 15.2584 17.2902 16.4195 17.7419C16.9357 17.9351 17.1293 17.9999 17.2586 18.1289C17.5161 18.2577 17.6454 18.516 17.6454 18.7738C17.6454 19.29 17.2586 19.6772 16.6776 19.6772C16.0964 19.6772 15.5807 19.3547 15.3226 18.8384L14.5483 19.6127C15.1292 20.4514 15.8389 20.8384 16.7422 20.8384C18.0324 20.8384 18.9352 19.9997 18.9352 18.7738C18.9353 17.6773 18.5486 17.2256 17.1292 16.7094Z" fill="white"/>
    <path d="M45.0003 17.9351C45.9677 17.7419 46.484 17.0964 46.484 16.1289C46.484 14.9678 45.6452 14.2578 44.2261 14.2578H42.355V20.5806H43.5808V18.0642H43.7745L45.516 20.5806H47.0001L45.0003 17.9351ZM43.9677 17.1609H43.5809V15.2256H43.9677C44.742 15.2256 45.1938 15.548 45.1938 16.1936C45.1938 16.8385 44.742 17.1609 43.9677 17.1609Z" fill="white"/>
</svg>

<svg width="54" height="35" fill="none" xmlns="http://www.w3.org/2000/svg"><rect width="54" height="35" rx="3" fill="#21125E"/><path d="M31.58 17.401a3.321 3.321 0 00-.967-2.37 3.32 3.32 0 00-2.375-.966h-.012a3.332 3.332 0 00-3.355 3.354 3.355 3.355 0 003.355 3.355 3.332 3.332 0 003.355-3.355v-.018z" fill="#F26E21"/><path d="M24.247 18.838c-.501.502-.964.699-1.462.71-1.215-.012-2.108-.911-2.108-2.193 0-.646.245-1.175.632-1.627a1.97 1.97 0 011.368-.567c.581 0 1.033.194 1.549.71v-1.484c-.516-.258-.968-.387-1.549-.387a3.74 3.74 0 00-2.186.91c-.17.154-.335.324-.474.518a3.252 3.252 0 00-.695 1.992c0 1.87 1.485 3.29 3.355 3.29l.027-.001h.038c.516 0 .968-.128 1.548-.386l-.043-1.485c-.021.022.022.043 0 .063v-.063zm11.569-3.914l-1.461 3.592-1.678-4.258h-1.354l2.645 6.516h.71l2.774-6.516h-1.355l-.281.666zm2.152 2.172v3.485h3.548v-1.033h-2.257v-1.741h2.193v-1.098h-2.194v-1.354h2.258v-1.097h-3.548v2.838zM8.807 14.258H7v6.323h1.807c.967 0 1.677-.259 2.258-.71a3.19 3.19 0 001.16-2.451c0-1.872-1.354-3.162-3.418-3.162zm1.483 4.774c-.387.323-.903.516-1.677.516h-.387v-4.193h.322c.775 0 1.29.129 1.678.516.451.386.71.967.71 1.548a1.929 1.929 0 01-.646 1.613zm3.743-4.775h-1.226v6.323h1.226v-6.323zm3.097 2.453c-.775-.259-.969-.452-.969-.775 0-.387.387-.71.904-.71.387 0 .71.13 1.032.517l.645-.839a2.81 2.81 0 00-1.87-.71c-1.098 0-2.001.775-2.001 1.807 0 .903.387 1.29 1.548 1.742.517.193.71.258.84.387a.71.71 0 01.386.645c0 .516-.386.903-.967.903a1.504 1.504 0 01-1.355-.839l-.775.775c.581.838 1.29 1.225 2.194 1.225 1.29 0 2.193-.838 2.193-2.064 0-1.097-.386-1.548-1.806-2.065zM45 17.935c.968-.193 1.484-.839 1.484-1.806 0-1.161-.839-1.871-2.258-1.871h-1.871v6.323h1.226v-2.517h.194l1.741 2.517H47l-2-2.646zm-1.032-.774h-.387v-1.935h.387c.774 0 1.226.322 1.226.968 0 .645-.452.967-1.226.967z" fill="#fff"/></svg>
